X:1
T:How Can I Serve Thee Best?
T:How Can I Serve Thee Best?
T:Charles Hutchinson Gabriel
T:Flora Kirkland, 1899
T:Public Domain Courtesy of the Cyber Hymnal™
T:Public Domain Courtesy of the Cyber Hymnal™
C:Charles Hutchinson Gabriel
Z:Public Domain
Z:Courtesy of the Cyber Hymnal™
%%score ( 1 2 ) ( 3 4 )
L:1/8
Q:1/4=100
M:9/8
K:C
V:1 treble 
V:2 treble 
V:3 bass 
V:4 bass 
V:1
 [EG][^D^F][EG] | [Ec]3 [EG]3 [CE][CD]C | [CE]6 [CE][B,D][CE] | [B,F]3 [DG]3 [FA][GB][FA] | %4
w: 1.~Where shall I|go, Lord, where shall I|go? Wis- dom to|guide me Thou wilt bes-|
w: 2.~What shall I|say, Lord, what shall I|say? Thou art my|teach- er, teach me to-|
w: 3.~What shall I|read, Lord, what shall I|read? Here Thy pro-|tec- tion ev- er I|
w: 4.~Pur- chased by|Thee, Lord, now I am|Thine, Time, thought and|ef- fort nev- er- more|
 [EG]6 [EG][^D^F][EG] | [Ec]3 [EG]3 [Ge][Gd][Gc] | ([GB]3 [FA]3) [Ac][GB][FA] | %7
w: tow; Help me to|go, Lord, where Thou dost|lead, * Trust- ing Thy|
w: day. On- ly and|ev- er help me to|be * Speak- ing for|
w: need; Led by Thy|Spir- it, sent from a-|bove, * E’en thro’ temp-|
w: mine; Thou hast re-|deemed me, help me to|be * Shin- ing for|
 [EG]3 [Ec]3 [FB][FA][FB] | [Ec]6 ||"^Refrain" [Ec][DB][Ec] | [Fd]3- [Fd]2 [Ge] [Bd][Ac][FA] | %11
w: prom- ise, “Grace for all|need.”|||
w: Thee, Lord, speak- ing for|Thee.|What shall it|be, * Lord, what shall it|
w: ta- tion safe- ly I’ll|move.|||
w: Thee, Lord, on- ly for|Thee.|||
 [EG]6 [EG][^D^F][EG] | [FA]3 [Gc]3 (cB)[=Fc] | [Gd]6 G[^FA][=FB] | [Ec]3 [Ge]3 [Ge][Gd][Gc] | %15
w: ||||
w: be? How can I|serve Thee, serve * Thee|best? Speak un- to|me, Lord, speak un- to|
w: ||||
w: ||||
 ([GB]3 [FA]3) [Ac][GB][FA] | [EG]3 [Ec]3 [FB]3 | [Ec]6 |] %18
w: |||
w: me, * Help me to|shrink from no|test.|
w: |||
w: |||
V:2
 x3 | x8 C | x9 | x9 | x9 | x9 | x9 | x9 | x6 || x3 | x9 | x9 | x6 ^F2 x | x6 G x2 | x9 | x9 | x9 | %17
 x6 |] %18
V:3
 [C,C][C,C][C,C] | [C,G,]3 [C,C]3 [C,G,][C,F,][C,E,] | [C,G,]6 G,[F,G,][E,G,] | %3
w: ~ ~ ~|~ ~ ~ ~ ~|~ ~ ~ ~|
 [D,G,]3 [B,,G,]3 [G,,G,][G,,G,][G,,B,] | [C,G,]6 [C,C][C,C][C,C] | %5
w: ~ ~ ~ ~ ~|~ ~ ~ ~|
 [C,G,]3 [C,C]3 [C,C][D,B,][E,C] | [F,C]6 [F,C][F,C][F,C] | [G,C]3 [G,C]3 [G,D][G,D][G,D] | %8
w: ~ ~ ~ ~ ~|~ ~ ~ ~|~ ~ ~ ~ ~|
 [C,C]6 || z3 | [G,B,][G,B,][G,B,] [G,B,]3 z3 | [C,C][C,C][C,C] [C,C]3 z3 | %12
w: ~||What shall it be,|what shall it be?|
 [F,C][F,C][F,C] [F,C]3 [D,D]3 | [G,B,]2 [G,B,] [G,B,]3 [G,B,][G,C][G,D] | %14
w: How can I serve Thee,|serve Thee best? * * *|
 [C,C]3 [C,C]3 [C,C][D,B,][E,C] | [F,C]6 [F,C][F,C][F,C] | [G,C]3 G,3 [G,,G,]3 | [C,G,]6 |] %18
w: ||||
V:4
 x3 | x9 | x6 G, x2 | x9 | x9 | x9 | x9 | x9 | x6 || x3 | x9 | x9 | x9 | x9 | x9 | x9 | x3 G,3 x3 | %17
 x6 |] %18

